!!!!SEGMENT: pl-wn--mus-iii-105-719-2--003_zelenski-wladyslaw--25-preludyi-op-38-19-andantino.krn
!!!cenid: 18xx:3752
!!!COM: Żeleński, Władysław
!!!COM-rismID: pe41024455
!!!CDT: 1837/07/06-1921/01/23
!!!CNT: Polish
!!!GTL: 25 preludyi op. 38
!!!OTL: 19. Andantino
!!!PDT: 1881
!!!AGN:
!!!SMS-siglum: PL-Wn
!!!SMS-shelfmark: Mus.III.105.719/2
!!!SMS-shelfwork: 003 G
!!!SMS-variant:
!!!SMS-altvar:
!!!NIFC-rismSourceID:
!!!NIFC-islandoraID:
!!!URL-pdf-islandora:
!!!URL-scan: https://polona.pl/item/25-preludyi-2-3-i-4-glosowych-na-organ-lub-fisharmonike-do-uzytku-organistow-i,ODE1NjEwNDA/2 @EN{Scan on Polona} @PL{Skany w portalu Polona}
!!!ONB-nifc:
!!!AIN: 1 organ
!!!key: A
**kern	**fing	**kern	**fing	**dynam
*part1	*part1	*part1	*part1	*part1
*staff2	*staff2	*staff1	*staff1	*
*I"[Organ]	*	*I"[Organ]	*	*
*Iorgan	*	*Iorgan	*	*
*ICklav	*	*ICklav	*	*
*clefF4	*	*clefG2	*	*
*k[f#c#g#]	*	*k[f#c#g#]	*	*
*A:	*	*A:	*	*
*M3/8	*	*M3/8	*	*
=1	=1	=1	=1	=1
*^	*	*	*	*
*	*	*	*	*^	*
*	*	*^	*	*	*	*
!!LO:TX:a:B:t=Andantino.
*xywh-5:305,369,5183,1053	*	*	*	*xywh-5:305,369,5183,1053	*	*	*
!	!	!	!	!LO:TX:Bi:a:t=1): Pierwsze cztery takty powinny być grane na drugiej kla-\nwiaturze bardzo łagodnie; takty zaś 5–8 na pierwszej co-\nkolwiek ostrzej. Według tego takty 9–16. / Die ersten vier Takte müssen auf dem zweiten Manuale \nrecht zart, Takt 5–8 dagegen auf dem ersten etwas schär-\nfer gespielt werden. Eben nach diesem Takt 9–16.:footnote	!	!	!
([4.A/	4.AA\	.	5	(>4.e 4.c#/	4	2	pp
=2	=2	=2	=2	=2	=2	=2	=2
4.A/]	4.D\	.	3	4.f# [4.d/	3	1	.
=3	=3	=3	=3	=3	=3	=3	=3
4.B/	4.BB\	.	5	4.g# 4.d/]	4	.	.
=4	=4	=4	=4	=4	=4	=4	=4
4.A/)	4.F#\	1	3	4.a 4.c#/)	5	2	.
=5	=5	=5	=5	=5	=5	=5	=5
*	*	*	*	*^	*	*	*
!	!	!	!	!	!	!	!	!LO:HP:b=2
(4.G#/	[4.E\	2	5	(8b/L	[4.e\	3	1	<
.	.	.	.	8cc#/	.	.	.	.
.	.	.	.	8dd/J	.	.	.	.
=6	=6	=6	=6	=6	=6	=6	=6	=6
8A/L	4.E\_	.	.	8cc#/L	(4.e\]	4	.	.
8B/	.	1	.	8b/	.	5	.	.
8c#/J	.	2	.	8a/J	.	4	.	.
=7	=7	=7	=7	=7	=7	=7	=7	=7
4B/	4.E\]	1	.	8g#/L	4.d#X\	3	2	.
.	.	.	.	8a/	.	5	.	.
8A/	.	2	.	8f#/J)	.	3	.	.
=8	=8	=8	=8	=8	=8	=8	=8	=8
8G#/L	8E\	3	.	8e/	8e\)	1	.	[
8F#/	8r	.	.	8r	4ryy	.	.	.
8G#/J)	8r	.	.	8r	.	.	.	.
*	*	*	*	*v	*v	*	*	*
=9	=9	=9	=9	=9	=9	=9	=9
([4.c#/	4.C#\	.	.	(>4.g# 4.e/	3	1	pp
=10	=10	=10	=10	=10	=10	=10	=10
4.c#/]	4.F#\	.	.	4.a [4.f#/	4	2	.
=11	=11	=11	=11	=11	=11	=11	=11
4.d/	4.D\	.	.	4.b 4.f#/]	5	.	.
=12	=12	=12	=12	=12	=12	=12	=12
[4.c#/)	4.A\	2	3	4.cc# 4.e/)	4	1	.
=13	=13	=13	=13	=13	=13	=13	=13
*	*	*	*	*^	*	*	*
!	!	!	!	!	!	!	!	!LO:HP:b=2
(4.c#/_	(4.F#\	.	5	(8dd#X/L	(4.a\	3	1	<
.	.	.	.	8ee/	.	4	.	.
.	.	.	.	8ff#/J	.	5	.	.
=14	=14	=14	=14	=14	=14	=14	=14	=14
8c#/L]	[4.G#\)	.	4	8ee/L	[4.g#\)	5	2	.
*	*	*below	*	*	*	*	*	*
8d#X/	.	1	.	8dd#X/	.	4	.	.
8e/J	.	1	.	8cc#/J	.	3	.	.
*	*	*above	*	*	*	*	*	*
=15	=15	=15	=15	=15	=15	=15	=15	=15
4.d#X/	4.G#\]	2-1	4-3	8b#X/L	4g#\]	.	1	.
.	.	.	.	8a#X/	.	.	.	.
.	.	.	.	8b#/J	8f#\	.	2	.
=16	=16	=16	=16	=16	=16	=16	=16	=16
8c#/L	8C#\	1	.	8cc#/)	8e\	5	1	[
*	*	*below	*	*	*	*	*	*
8B/	8r	2	.	8r	4ryy	.	.	.
8A/J)	8r	1	.	8r	.	.	.	.
*	*	*above	*	*	*	*	*	*
=17	=17	=17	=17	=17	=17	=17	=17	=17
!	!	!	!	!LO:TX:Bi:a:t=2):na pierwszej klawiaturze. / Erstes Manual.:footnote	!	!	!	!
(4.G#/	4.E\	2	3	(4.b/	[4.e\	4	1	pp
=18	=18	=18	=18	=18	=18	=18	=18	=18
[4.A/	4.AA\	.	.	[4.ccn/)	4.e\]	.	.	.
=19	=19	=19	=19	=19	=19	=19	=19	=19
4.A/]	[4.D\	.	.	8cc/L]	[4.fn\	.	2-1	.
.	.	.	.	8a/	.	3	.	<
.	.	.	.	8ccn/J	.	5	.	.
=20	=20	=20	=20	=20	=20	=20	=20	=20
[4.Gn/)	8D\L]	.	.	8b/L	4.f\]	2	.	.
.	8Cn\	.	.	8ccn/	.	3	.	.
.	8BB\J	.	.	8dd/J	.	4	.	[
=21	=21	=21	=21	=21	=21	=21	=21	=21
(4.G/]	4.Cn\	.	4-5	(4.ee/	[4.e\	5	.	<
=22	=22	=22	=22	=22	=22	=22	=22	=22
4.A/	4.Fn\	.	1 2	[4.a/	4.e\]	2	.	.
=23	=23	=23	=23	=23	=23	=23	=23	=23
4.B/	4.BB\	.	.	8a/L])	[4.d\	.	.	.
*	*	*	*	*	*	*below	*	*
.	.	.	.	(8dd/	.	5	.	.
.	.	.	.	8b/J	.	4	.	.
*	*	*	*	*	*	*above	*	*
!!LO:LB:g=original
=24	=24	=24	=24	=24	=24	=24	=24	=24
*xywh-5:277,1182,5176,905	*	*	*	*	*xywh-5:277,1182,5176,905	*	*	*
4.E/	4.E\	.	2	[4.gn/)	8d\L]	3-4	.	.
.	.	.	.	.	8B\	.	.	.
.	.	.	.	.	8d\J	.	.	.
=25	=25	=25	=25	=25	=25	=25	=25	=25
[4.A/	4.AA\	.	.	8g/L]	[4.cn\	.	.	.
.	.	.	.	(8ccn/	.	.	.	.
.	.	.	.	8a/J	.	.	.	.
=26	=26	=26	=26	=26	=26	=26	=26	=26
4.A/_	4.D\	.	3	([4.f#X/)	8c\L]	3-4	.	.
.	.	.	.	.	8B\	.	2	.
.	.	.	.	.	8cn\J	.	1	.
=27	=27	=27	=27	=27	=27	=27	=27	=27
!	!	!	!	!	!	!	!	!LO:DY:b=2
4.A/]	4.C#X\	.	.	8f#/L]	4.c#X\	.	2-1	pp
.	.	.	.	8g#X/	.	3	.	.
.	.	.	.	8a/J	.	4	.	.
=28	=28	=28	=28	=28	=28	=28	=28	=28
4.F#/	4.D\	2	3	8b/L	4.f#\	5	.	.
.	.	.	.	8a/	.	3	.	.
.	.	.	.	8b/J	.	4	.	.
=29	=29	=29	=29	=29	=29	=29	=29	=29
!	!	!	!	!LO:TX:b:i:t=dolce	!	!	!	!
8G#/L)	[4.C#\	.	.	[4.cc#/)	[4.e#X\	.	1	.
*	*	*below	*	*	*	*	*	*
(8c#/	.	1	.	.	.	.	.	.
8B/J	.	1	.	.	.	.	.	.
*	*	*above	*	*	*	*	*	*
=30	=30	=30	=30	=30	=30	=30	=30	=30
8A/L	4.C#\_	2	.	4.cc#/_	4.e#\]	.	.	.
8B/	.	1	.	.	.	.	.	.
8G#/J	.	2	.	.	.	.	.	.
=31	=31	=31	=31	=31	=31	=31	=31	=31
[4.A/	4.C#\_	1	.	8cc#/L]	[4.f#\	.	2-1	.
*	*	*	*	*	*	*below	*	*
.	.	.	.	(8ee/	.	5	.	.
.	.	.	.	8dd/J	.	4	.	.
*	*	*	*	*	*	*above	*	*
=32	=32	=32	=32	=32	=32	=32	=32	=32
4.A/]	4.C#\_	.	.	8cc#/L	4.f#\]	3	.	.
.	.	.	.	8dd/	.	4	.	.
.	.	.	.	8a/J	.	2	.	.
=33	=33	=33	=33	=33	=33	=33	=33	=33
8G#/L)	4.C#\_	2	.	[4.cc#/	[4.e#X\	4	1	.
(8c#/	.	.	.	.	.	.	.	.
8B/J	.	.	.	.	.	.	.	.
=34	=34	=34	=34	=34	=34	=34	=34	=34
8A/L	4.C#\_	.	.	4.cc#/_	(4.e#\]	.	.	.
8B/	.	.	.	.	.	.	.	.
8G#/J	.	.	.	.	.	.	.	.
=35	=35	=35	=35	=35	=35	=35	=35	=35
[4.A/	4.C#\_	.	.	8cc#/L])	[4.f#\)	.	2-1	.
.	.	.	.	(8ff#/	.	.	.	.
.	.	.	.	8dd/J	.	.	.	.
=36	=36	=36	=36	=36	=36	=36	=36	=36
4.A/]	4.C#\_	.	.	8cc#/L	4.f#\]	.	.	.
*	*	*	*	*	*	*below	*	*
.	.	.	.	8dd/	.	5	.	.
.	.	.	.	8a/J	.	2	.	.
*	*	*	*	*	*	*above	*	*
=37	=37	=37	=37	=37	=37	=37	=37	=37
8G#/L)	4.C#\_	.	.	[4.cc#/	[4.e#X\	4	1	<
(8c#/	.	.	.	.	.	.	.	.
8G#/J	.	.	.	.	.	.	.	.
=38	=38	=38	=38	=38	=38	=38	=38	=38
8A/L	4.C#\]	.	.	4.cc#/]	4.e#\]	.	.	.
8B/	.	.	.	.	.	.	.	.
8G#/J	.	.	.	.	.	.	.	.
=39	=39	=39	=39	=39	=39	=39	=39	=39
4.F#/	4.D\	3	5	8b/L)	[4.f#\	.	2	.
.	.	.	.	(8dd/	.	5	.	.
.	.	.	.	8cc#/J	.	4	.	.
=40	=40	=40	=40	=40	=40	=40	=40	=40
[4.B/	4.D#X\	1	4	8b/L	4.f#\]	3	.	.
.	.	.	.	8cc#/	.	5	.	.
.	.	.	.	8a/J	.	4	.	.
=41	=41	=41	=41	=41	=41	=41	=41	=41
!	!	!	!	!	!	!	!	!LO:HP:b=2
8B/L])	[4.E\	.	5	8g#/L	[4.e\	3	.	<
*	*	*below	*	*	*	*	*	*
(8d/	.	1	.	8b/	.	5	.	.
8c#/J	.	2	.	8a/J	.	4	.	.
*	*	*above	*	*	*	*	*	*
=42	=42	=42	=42	=42	=42	=42	=42	=42
4B/	4.E\_	1	.	8g#/L	4e\]	3	.	.
.	.	.	.	8a/	.	5	.	.
8A/	.	.	.	8f#/J	8d#X\	4	2	.
*	*	*	*	*v	*v	*	*	*
=43	=43	=43	=43	=43	=43	=43	=43
8G#/L	4.E\_	.	.	8e/L	3	.	[
!	!	!	!	!	!	!	!LO:HP:b=2
8B/	.	.	.	8g# 8dn/	5 1	.	>
8A/J	.	.	.	8f#J 8cn/	4 2	.	.
=44	=44	=44	=44	=44	=44	=44	=44
*	*	*	*	*^	*	*	*
8G#/L	4.E\]	.	.	4.e/	4B\	3	1	.
8F#/	.	.	.	.	.	.	.	]
8G#/J	.	.	.	.	8B#X\	.	2-1	.
!!LO:LB:g=original
=45	=45	=45	=45	=45	=45	=45	=45	=45
*xywh-5:326,1925,5155,883	*	*	*	*xywh-5:326,1925,5155,883	*	*	*	*
!	!	!	!	!LO:TX:Bi:a:t=3):jak przy 1) / wie bei 1):footnote	!	!	!	!
[4.A/	4.AA\	.	.	4.e/	(4.c#\	2 4	.	pp
=46	=46	=46	=46	=46	=46	=46	=46	=46
4.A/]	4.D\	.	.	4.f#/	4.d\	.	.	.
=47	=47	=47	=47	=47	=47	=47	=47	=47
4.B/	4.BB\	.	.	4.g#/	4.d\	.	.	.
=48	=48	=48	=48	=48	=48	=48	=48	=48
4.A/)	4.F#\	.	.	4.a/)	4.c#\)	.	.	.
=49	=49	=49	=49	=49	=49	=49	=49	=49
!	!	!	!	!LO:TX:Bi:a:t=4):na pierwszej klawiaturze. / Erstes Manual.:footnote	!	!	!	!
!	!	!	!	!	!	!	!	!LO:HP:b=2
(4.F#/	[4.D\	.	.	(8a/L	[4.d\	.	.	<
.	.	.	.	8b/	.	.	.	.
.	.	.	.	8ccn/J	.	.	.	.
=50	=50	=50	=50	=50	=50	=50	=50	=50
8Gn/L	4.D\_	.	.	8b/L	4.d\]	.	.	.
8A/	.	.	.	8a/	.	.	.	.
8B/J	.	.	.	8gn/J	.	.	.	.
=51	=51	=51	=51	=51	=51	=51	=51	=51
4A/	4.D\_	.	.	8f#/L	4.c#X\	.	.	.
.	.	.	.	8gn/	.	.	.	.
8Gn/	.	.	.	8e/J	.	.	.	.
=52	=52	=52	=52	=52	=52	=52	=52	=52
8F#/L	8D\]	.	.	8d/)	8d\	.	.	[
8A/	8r	.	.	8r	4ryy	.	.	.
8cn/J)	8r	.	.	8r	.	.	.	.
=53	=53	=53	=53	=53	=53	=53	=53	=53
(4.G#X/	[4.E\	.	.	(8b/L	[4.e\	.	.	<
.	.	.	.	8ccn/	.	.	.	.
.	.	.	.	8dd/J	.	.	.	.
=54	=54	=54	=54	=54	=54	=54	=54	=54
8A/L	4.E\_	.	.	8ccn/L	4.e\]	.	.	.
8B/	.	.	.	8b/	.	.	.	.
8cn/J	.	.	.	8a/J	.	.	.	.
=55	=55	=55	=55	=55	=55	=55	=55	=55
4B/	4.E\_	.	.	8g#X/L	4.d#X\	.	.	.
.	.	.	.	8a/	.	.	.	.
8A/	.	.	.	8f#/J	.	.	.	.
=56	=56	=56	=56	=56	=56	=56	=56	=56
8G#/L	8E\]	.	.	8e/)	8e\	.	.	.
8B/	8r	.	.	8r	4ryy	.	.	.
8d/J)	8r	.	.	8r	.	.	.	.
=57	=57	=57	=57	=57	=57	=57	=57	=57
(4.A#X/	4.F#\	.	.	(8cc#/L	[4.f#\	3	1	<
.	.	.	.	8dd/	.	4	.	.
.	.	.	.	8ee/J	.	5	.	.
=58	=58	=58	=58	=58	=58	=58	=58	=58
8B/L	4.F#\	1	.	8dd/L	4.f#\]	.	.	.
*	*	*below	*	*	*	*	*	*
8c#/	.	2	.	8cc#/	.	.	.	.
8d/J	.	1	.	8b/J	.	.	.	.
*	*	*above	*	*	*	*	*	*
=59	=59	=59	=59	=59	=59	=59	=59	=59
[4.A#X/	4.E\	.	2 5-4	8cc#/L	(4.gn\	3	.	.
.	.	.	.	8dd/	.	3	.	.
.	.	.	.	8ee/J	.	4	.	.
=60	=60	=60	=60	=60	=60	=60	=60	=60
8A#/L]	4.D\	.	.	8ff#/L	4.f#\)	.	.	.
*	*	*below	*	*	*	*	*	*
8B/	.	2	.	8dd/	.	.	.	.
8d/J)	.	1	.	8b/J)	.	.	.	.
*	*	*above	*	*	*	*	*	*
=61	=61	=61	=61	=61	=61	=61	=61	=61
4c#/	[4.E\	2	5	([4.a/	4e\	5	1	[
8cn/	.	1	.	.	8d#X\	.	.	>
=62	=62	=62	=62	=62	=62	=62	=62	=62
4.B/	4.E\]	.	2-1 5-3	8a/L]	4.dn\	.	.	.
.	.	.	.	8f#/	.	3	.	]
.	.	.	.	8g#/J	.	4	.	.
=63	=63	=63	=63	=63	=63	=63	=63	=63
!	!	!	!	!LO:TX:b:i:t=dolce	!	!	!	!
8AA/L	[4.AA\	.	.	[4.a/)	[4.c#\	5	2	.
*	*	*below	*	*	*	*	*	*
(8A/	.	1	.	.	.	.	.	.
8G#/J	.	1	.	.	.	.	.	.
*	*	*above	*	*	*	*	*	*
=64	=64	=64	=64	=64	=64	=64	=64	=64
8F#/L	4.AA\_	2	.	4.a/_	4.c#\]	.	.	.
8G#/	.	1	.	.	.	.	.	.
8E/J	.	2	.	.	.	.	.	.
=65	=65	=65	=65	=65	=65	=65	=65	=65
[4.F#/	4.AA\_	1	.	8a/L]	[4.d\	.	.	.
*	*	*	*	*	*	*below	*	*
.	.	.	.	(8dd/	.	5	.	.
.	.	.	.	8cc#/J	.	4	.	.
*	*	*	*	*	*	*above	*	*
=66	=66	=66	=66	=66	=66	=66	=66	=66
4.F#/_	4.AA\_	.	.	8b/L	4.d\]	3	.	.
.	.	.	.	8cc#/	.	5	.	.
.	.	.	.	8a/J	.	4	.	.
=67	=67	=67	=67	=67	=67	=67	=67	=67
8F#/L])	4.AA\_	.	.	[4.b/	[4.d#X\	5	2	.
*	*	*below	*	*	*	*	*	*
(8B/	.	1	.	.	.	.	.	.
8A/J	.	1	.	.	.	.	.	.
*	*	*above	*	*	*	*	*	*
!!LO:LB:g=original
=68	=68	=68	=68	=68	=68	=68	=68	=68
*xywh-5:333,2639,5289,1569	*	*	*	*xywh-5:333,2639,5289,1569	*	*	*	*
8G#/L	4.AA\_	2	.	4.b/_	4.d#\]	.	.	.
8A/	.	1	.	.	.	.	.	.
8F#/J	.	2	.	.	.	.	.	.
=69	=69	=69	=69	=69	=69	=69	=69	=69
[4.G#/	4.AA\_	.	.	8b/L])	[4.e\	.	1	.
.	.	.	.	(8ee/	.	.	.	.
.	.	.	.	8ddn/J	.	.	.	.
=70	=70	=70	=70	=70	=70	=70	=70	=70
4.G#/]	4.AA\]	.	.	8cc#/L	4.e\_	.	.	.
.	.	.	.	8dd/	.	5	.	.
.	.	.	.	8b/J)	.	4	.	.
=71	=71	=71	=71	=71	=71	=71	=71	=71
8A/L)	8AA\	.	.	([4.cc#/	4e\]	5	.	.
*	*	*below	*	*	*	*	*	*
!	!	!	!	!	!	!	!	!LO:HP:b=2:t=cresc poco a poco
(8c#/	8r	2	.	.	.	.	.	<
!	!	!	!	!	!LO:N:vis=4	!	!	!
8B/J	8r	1	.	.	(8g#\	.	2	.
=72	=72	=72	=72	=72	=72	=72	=72	=72
8A/L	4.r	2	.	8cc#/L]	4f#\)	.	1	.
8B/	.	1	.	8dd#X/	.	4	.	.
8G#/J	.	3	.	8ee#X/J	(8b\	5	2	.
=73	=73	=73	=73	=73	=73	=73	=73	=73
8F#/L	4.r	4	.	8ff#/)	8a\)	4	1	.
8A/	.	1	.	8r	8ryy	.	.	.
8Gn/J	.	2	.	([8a/	(8e\	4	2	.
=74	=74	=74	=74	=74	=74	=74	=74	=74
8F#/L	4.r	3	.	8a/L]	4d\)	.	.	.
8Gn/	.	2	.	8b/	.	5	.	.
8E/J	.	4	.	8cc#/J	(8gn\	4	1	.
=75	=75	=75	=75	=75	=75	=75	=75	=75
8D/L	4.r	5	.	8dd/)	8f#\)	5	2	.
8F#/	.	2	.	8r	8ryy	.	.	.
8E/J	.	1	.	([8f#/	8c#\	4	2	.
=76	=76	=76	=76	=76	=76	=76	=76	=76
8D/L	4.r	2	.	8f#/L]	4B\	.	1	.
8E/	.	1	.	8g#X/	.	.	.	.
8C#/J	.	3	.	8a#X/J	8e\	.	2	.
=77	=77	=77	=77	=77	=77	=77	=77	=77
8BB/L	4.r	4	.	4b/	8d\L	5	1	.
8D/	.	2	.	.	8f#\	.	2	.
8E/J	.	1	.	8a#X/	8gn\J	3	1	.
=78	=78	=78	=78	=78	=78	=78	=78	=78
8D/L	4.r	2	.	8b/L	4f#\	4	2	>
*	*	*above	*	*	*	*	*	*
8BB/	.	1	.	8dd/	.	5	.	.
*	*	*below	*	*	*	*	*	*
8D/J	.	2	.	8b/J)	8d\	4	1	.
=79	=79	=79	=79	=79	=79	=79	=79	=79
(<[4.E/)	4.r	1	.	(4.a/ 4.c#/	4.ryy	5	2	.
=80	=80	=80	=80	=80	=80	=80	=80	=80
4.E/]	4.EE\)	3	.	8g#/L	4.d\	4	.	.
.	.	.	.	8f#/	.	3	.	.
.	.	.	.	8g#/J)	.	4	.	]
=81	=81	=81	=81	=81	=81	=81	=81	=81
!	!	!	!	!LO:TX:Bi:a:t=5):na drugiej klawiaturze. / Zweites Manual.:footnote	!	!	!	!
4.E/	(4.AA\	3	.	4.a/	(4.c#\	5	2	pp
=82	=82	=82	=82	=82	=82	=82	=82	=82
4.ryy	4.GGn\	.	.	4.e 4.c#/	4.B-X\)	3	1	.
=83	=83	=83	=83	=83	=83	=83	=83	=83
4.ryy	4.FFn\)	.	.	4.a 4.cn/ (<4.A/	4.ryy	5	1	.
=84	=84	=84	=84	=84	=84	=84	=84	=84
4.Gn/	4Cn\	3	.	4.e/ [<4.c#/)	4.ryy	3	2-1	.
.	8BB-X\	.	.	.	.	.	.	.
=85	=85	=85	=85	=85	=85	=85	=85	=85
*	*	*above	*	*	*	*	*	*
4.Fn/	4.AA\	2-1	5-4	(4.a/ 4.c#/]	4.ryy	.	.	.
=86	=86	=86	=86	=86	=86	=86	=86	=86
[4.C#X/	4.GGn\	2	5	4.e/)	4.B-X\	3	2	<
=87	=87	=87	=87	=87	=87	=87	=87	=87
4.C#/]	4.FF#X\	.	4	[4.a/	[4.A\	.	.	.
=88	=88	=88	=88	=88	=88	=88	=88	=88
4.D/	8FFn\L	1	5	4.a/_	4d 4A\]	.	.	.
.	8EE\	.	4	.	.	.	.	.
!	!	!	!	!	!LO:TX:t=P:problem=błędne wyświetlanie łuku	!	!	!
.	8DD\J	.	5	.	(8fn (8B\	.	.	[
=89	=89	=89	=89	=89	=89	=89	=89	=89
[4.E/	[4.AA\	1	3	4.a/_	[>4.e [4.c#\))	.	3 2	>
=90	=90	=90	=90	=90	=90	=90	=90	=90
4.E/]	4.AA\]	.	.	4.a/]	4.e] 4.c#\]	.	.	]
*	*	*v	*v	*	*	*v	*v	*
*v	*v	*	*	*	*	*
*	*	*v	*v	*	*
==	==	==	==	==
*-	*-	*-	*-	*-
!!!system-decoration: {(s1,s2)}
!!!RDF**kern: > = above
!!!RDF**kern: < = below
!!!ENC: Filip Voros
!!!END: 2022-03-12
!!!ENC: Kamil Watkowski
!!!END: 2022-03-17
!!!IIIF: https://polona.pl/iiif/item/ODE1NjEwNDA/manifest.json
!!!ENC-iiif: Natalia Wrzos
!!!END-iiif: 2022-08-19
